public_html/images/question.svg

<svg xmlns="http://www.w3.org/2000/svg" width="512" height="512" viewBox="0 0 512 512" xmlns:xlink="http://www.w3.org/1999/xlink"><defs><path id="a" d="M.06 512V.002h511.939V512z"/></defs><g fill="none" fill-rule="evenodd"><path d="M363.788 53.896c-34.176 0-61.979 27.803-61.979 61.979a8.084 8.084 0 1 0 16.169 0c0-25.261 20.55-45.811 45.81-45.811s45.81 20.55 45.81 45.811c0 25.26-20.55 45.81-45.81 45.81a8.084 8.084 0 0 0-8.084 8.084v35.93a8.084 8.084 0 0 0 8.084 8.084 8.084 8.084 0 0 0 8.084-8.084v-28.37c30.371-3.974 53.895-30.019 53.895-61.454 0-34.176-27.803-61.979-61.979-61.979m0 180.547c5.953 0 10.779 4.826 10.779 10.779s-4.826 10.779-10.779 10.779-10.779-4.826-10.779-10.779 4.826-10.779 10.779-10.779m-258.694 53.895c11.906 0 21.558 9.651 21.558 21.557 0 11.906-9.652 21.558-21.558 21.558s-21.558-9.652-21.558-21.558 9.652-21.557 21.558-21.557" fill="#dfdacc"/><mask id="b" fill="#fff"><use xlink:href="#a"/></mask><path fill="#dfdacc" d="M169.767 288.338c11.906 0 21.558 9.651 21.558 21.557 0 11.906-9.652 21.558-21.558 21.558s-21.558-9.652-21.558-21.558 9.652-21.557 21.558-21.557" mask="url(#b)"/><path fill="#dfdacc" d="M454.388 259.113c-27.356 27.534-63.802 42.698-102.627 42.698H230.759a388.235 388.235 0 0 0 9.893-9.929c11.245-11.724 11.992-30.021 1.737-42.561-16.858-20.615-27.562-45.638-30.994-71.906-.523-4.01-3.958-6.997-8.002-6.997-4.871 0-8.657 4.281-8.025 9.111 3.825 29.233 15.741 57.083 34.506 80.028 5.084 6.218 4.702 15.304-.889 21.133-6.655 6.937-13.083 13.02-17.389 16.973-3.574 3.283-4.982 8.438-3.219 12.959 1.746 4.47 5.971 7.359 10.77 7.359H351.76c20.039 0 39.507-3.64 57.661-10.597-1.794 42.346-17.319 83.309-44.176 116.152-12.995 15.891-12.046 39.077 2.207 53.936 6.67 6.953 13.165 13.285 18.536 18.361H214.577c-53.465 0-103.655-20.883-141.325-58.8-37.151-37.394-57.422-86.841-57.079-139.231.686-104.725 84.483-190.778 188.299-195.205a156.164 156.164 0 0 0-9.062 35.507c-.642 4.826 3.154 9.104 8.023 9.104h.009c4.032 0 7.465-2.97 7.998-6.966 4.115-30.857 18.354-59.527 41.127-82.187C279.73 31.027 315.38 16.17 353.024 16.17l.716.002c77.838.389 141.578 64.028 142.087 141.862.25 38.033-14.467 73.93-41.439 101.079zm10.961-212.627C435.542 16.723 395.934.215 353.82.003c-42.212-.179-82.251 16.336-112.657 46.591-11.931 11.872-21.748 25.238-29.285 39.643l-.038-.002h-.041c-56.389.282-109.425 22.385-149.336 62.24C22.556 188.324.373 241.318.005 297.695c-.371 56.728 21.568 110.259 61.777 150.731C102.509 489.423 156.773 512 214.577 512h179.976c5.32 0 10.002-3.203 11.93-8.161 1.927-4.954.643-10.476-3.275-14.067-5.87-5.382-14.813-13.826-24.088-23.494-8.598-8.964-9.183-22.94-1.358-32.508 30.764-37.62 47.784-85.081 47.995-133.738 14.625-7.595 28.146-17.492 40.101-29.525 30.029-30.226 46.415-70.209 46.138-112.579-.276-42.103-16.843-81.681-46.647-111.442z" mask="url(#b)"/></g></svg>

<svg xmlns="http://www.w3.org/2000/svg" width="512" height="512" viewBox="0 0 512 512" xmlns:xlink="http://www.w3.org/1999/xlink">
  <defs>
    <polygon id="a" points=".06 512 .06 .002 511.999 .002 511.999 512"/>
  </defs>
  <g fill="none" fill-rule="evenodd">
    <g fill="#dfdacc" transform="translate(83 53)">
      <path d="M280.788.896C246.612.896 218.809 28.699 218.809 62.875 218.809 67.339 222.428 70.959 226.893 70.959 231.359 70.959 234.978 67.339 234.978 62.875 234.978 37.614 255.528 17.064 280.788 17.064 306.048 17.064 326.598 37.614 326.598 62.875 326.598 88.135 306.048 108.685 280.788 108.685 276.322 108.685 272.704 112.305 272.704 116.769L272.704 152.699C272.704 157.163 276.322 160.783 280.788 160.783 285.254 160.783 288.872 157.163 288.872 152.699L288.872 124.329C319.243 120.355 342.767 94.31 342.767 62.875 342.767 28.699 314.964.896 280.788.896M280.788 181.443C286.741 181.443 291.567 186.269 291.567 192.222 291.567 198.175 286.741 203.001 280.788 203.001 274.835 203.001 270.009 198.175 270.009 192.222 270.009 186.269 274.835 181.443 280.788 181.443M22.094 235.338C34 235.338 43.652 244.989 43.652 256.895 43.652 268.801 34 278.453 22.094 278.453 10.188 278.453.536 268.801.536 256.895.536 244.989 10.188 235.338 22.094 235.338"/>
    </g>
    <mask id="b" fill="white">
      <use xlink:href="#a"/>
    </mask>
    <path fill="#dfdacc" d="M169.767,288.338 C181.673,288.338 191.325,297.989 191.325,309.895 C191.325,321.801 181.673,331.453 169.767,331.453 C157.861,331.453 148.209,321.801 148.209,309.895 C148.209,297.989 157.861,288.338 169.767,288.338" mask="url(#b)"/>
    <path fill="#dfdacc" d="M454.388,259.113 C427.032,286.647 390.586,301.811 351.761,301.811 L230.759,301.811 C233.835,298.83 237.212,295.467 240.652,291.882 C251.897,280.158 252.644,261.861 242.389,249.321 C225.531,228.706 214.827,203.683 211.395,177.415 C210.872,173.405 207.437,170.418 203.393,170.418 C198.522,170.418 194.736,174.699 195.368,179.529 C199.193,208.762 211.109,236.612 229.874,259.557 C234.958,265.775 234.576,274.861 228.985,280.69 C222.33,287.627 215.902,293.71 211.596,297.663 C208.022,300.946 206.614,306.101 208.377,310.622 C210.123,315.092 214.348,317.981 219.147,317.981 L351.76,317.981 C371.799,317.981 391.267,314.341 409.421,307.384 C407.627,349.73 392.102,390.693 365.245,423.536 C352.25,439.427 353.199,462.613 367.452,477.472 C374.122,484.425 380.617,490.757 385.988,495.833 L214.577,495.833 C161.112,495.833 110.922,474.95 73.252,437.033 C36.101,399.639 15.83,350.192 16.173,297.802 C16.859,193.077 100.656,107.024 204.472,102.597 C200.083,113.996 197.037,125.896 195.41,138.104 C194.768,142.93 198.564,147.208 203.433,147.208 L203.442,147.208 C207.474,147.208 210.907,144.238 211.44,140.242 C215.555,109.385 229.794,80.715 252.567,58.055 C279.73,31.027 315.38,16.17 353.024,16.17 C353.262,16.17 353.501,16.171 353.74,16.172 C431.578,16.561 495.318,80.2 495.827,158.034 C496.077,196.067 481.36,231.964 454.388,259.113 Z M465.349,46.486 C435.542,16.723 395.934,0.215 353.82,0.003 C311.608,-0.176 271.569,16.339 241.163,46.594 C229.232,58.466 219.415,71.832 211.878,86.237 C211.865,86.237 211.853,86.235 211.84,86.235 L211.799,86.235 C155.41,86.517 102.374,108.62 62.463,148.475 C22.556,188.324 0.373,241.318 0.005,297.695 C-0.366,354.423 21.573,407.954 61.782,448.426 C102.509,489.423 156.773,512 214.577,512 L394.553,512 C399.873,512 404.555,508.797 406.483,503.839 C408.41,498.885 407.126,493.363 403.208,489.772 C397.338,484.39 388.395,475.946 379.12,466.278 C370.522,457.314 369.937,443.338 377.762,433.77 C408.526,396.15 425.546,348.689 425.757,300.032 C440.382,292.437 453.903,282.54 465.858,270.507 C495.887,240.281 512.273,200.298 511.996,157.928 C511.72,115.825 495.153,76.247 465.349,46.486 L465.349,46.486 Z" mask="url(#b)"/>
  </g>
</svg>
